OBS Studio/Fluent Dark Grey/scrollbar/caret_left.svg

<svg width="16" height="14" fill="none" viewBox="0 0 16 14" xmlns="http://www.w3.org/2000/svg"><path d="m5 7c0-0.24479 0.05729-0.47396 0.17188-0.6875 0.11458-0.21615 0.27213-0.39323 0.47265-0.53125l3.7852-2.6016c0.08854-0.0599 0.17838-0.10417 0.26953-0.13282 0.09114-0.03125 0.1914-0.04687 0.30078-0.04687 0.1354 0 0.2643 0.02604 0.3867 0.07812 0.1224 0.05209 0.2279 0.1237 0.3164 0.21485 0.0912 0.08854 0.1628 0.19271 0.2149 0.3125 0.0547 0.11979 0.082 0.2487 0.082 0.38672v6.0156c0 0.138-0.0273 0.2669-0.082 0.3867-0.0521 0.1198-0.1237 0.2253-0.2149 0.3164-0.0885 0.0886-0.194 0.1589-0.3164 0.211s-0.2513 0.0781-0.3867 0.0781c-0.20573 0-0.39583-0.0599-0.57031-0.1797l-3.7852-2.6016c-0.20052-0.13802-0.35807-0.3138-0.47265-0.52734-0.11459-0.21615-0.17188-0.44662-0.17188-0.69141z" fill="#fff" fill-opacity=".5442"/></svg>

<svg width="16" height="14" viewBox="0 0 16 14" fill="none" xmlns="http://www.w3.org/2000/svg">
<path d="M5 7C5 6.75521 5.05729 6.52604 5.17188 6.3125C5.28646 6.09635 5.44401 5.91927 5.64453 5.78125L9.42969 3.17969C9.51823 3.11979 9.60807 3.07552 9.69922 3.04687C9.79036 3.01562 9.89062 3 10 3C10.1354 3 10.2643 3.02604 10.3867 3.07812C10.5091 3.13021 10.6146 3.20182 10.7031 3.29297C10.7943 3.38151 10.8659 3.48568 10.918 3.60547C10.9727 3.72526 11 3.85417 11 3.99219V10.0078C11 10.1458 10.9727 10.2747 10.918 10.3945C10.8659 10.5143 10.7943 10.6198 10.7031 10.7109C10.6146 10.7995 10.5091 10.8698 10.3867 10.9219C10.2643 10.974 10.1354 11 10 11C9.79427 11 9.60417 10.9401 9.42969 10.8203L5.64453 8.21875C5.44401 8.08073 5.28646 7.90495 5.17188 7.69141C5.05729 7.47526 5 7.24479 5 7Z" fill="white" fill-opacity="0.5442"/>
</svg>
